src/lib/packages/icons/src/assets/line/wave-pulse.svg

<svg width="24" height="24" viewBox="0 0 24 24" fill="none" xmlns="http://www.w3.org/2000/svg">
<path d="M8.91394 18.7501C8.33994 18.7501 7.84698 18.3692 7.70398 17.8082L6.46497 12.9351C6.43697 12.8241 6.33702 12.7471 6.22302 12.7471H3C2.586 12.7471 2.25 12.4111 2.25 11.9971C2.25 11.5831 2.586 11.2471 3 11.2471H6.22302C7.02502 11.2471 7.72197 11.789 7.91797 12.566L8.87195 16.317L10.835 5.28108C10.939 4.69008 11.432 4.26608 12.032 4.25008C12.639 4.22008 13.147 4.63112 13.283 5.21712L15.265 13.743L16.053 12.201C16.354 11.613 16.9501 11.2471 17.6121 11.2471H21C21.414 11.2471 21.75 11.5831 21.75 11.9971C21.75 12.4111 21.414 12.7471 21 12.7471H17.6121C17.5171 12.7471 17.432 12.7991 17.389 12.8831L16.2889 15.035C16.0489 15.507 15.554 15.7731 15.024 15.7071C14.497 15.6431 14.079 15.2671 13.959 14.7491L12.098 6.74202L10.146 17.7171C10.042 18.3021 9.55396 18.7261 8.95996 18.7481C8.94496 18.7501 8.92994 18.7501 8.91394 18.7501Z" fill="currentColor"/>
</svg>

<svg xmlns="http://www.w3.org/2000/svg" width="24" height="24" fill="none"><path fill="currentColor" d="M8.914 18.75a1.24 1.24 0 0 1-1.21-.942l-1.239-4.873a.25.25 0 0 0-.242-.188H3a.75.75 0 0 1 0-1.5h3.223c.802 0 1.499.542 1.695 1.319l.954 3.751 1.963-11.036a1.238 1.238 0 0 1 1.197-1.03c.607-.03 1.115.38 1.251.966l1.982 8.526.788-1.542a1.743 1.743 0 0 1 1.56-.954H21a.75.75 0 0 1 0 1.5h-3.388a.249.249 0 0 0-.223.136l-1.1 2.152c-.24.472-.735.738-1.265.672a1.236 1.236 0 0 1-1.065-.958l-1.861-8.007-1.952 10.975a1.243 1.243 0 0 1-1.186 1.031c-.015.002-.03.002-.046.002Z"/></svg>
